icons/editor/italic.svg

<svg width="32" height="32" viewBox="0 0 32 32" fill="none" xmlns="http://www.w3.org/2000/svg">
<path fill-rule="evenodd" clip-rule="evenodd" d="M19.3716 8H25V6H11V8H17.2803L12.3915 24H7V26H21V24H14.4828L19.3716 8Z" fill="black"/>
</svg>

<svg viewBox="0 0 32 32" xmlns="http://www.w3.org/2000/svg"><path fill-rule="evenodd" d="M19.372 8H25V6H11v2h6.28l-4.889 16H7v2h14v-2h-6.517l4.889-16z"/></svg>
